X: 7089
T: Christine Taylor's
R: jig
M: 6/8
K: Gmajor
dc|:BAB GDD|DGB edd|cBc DFA|Aed Bdc|
BAB GDD|DGB edd|cBc Afe|dAF Gdc:|
|:gfg dBG|gdB cAA|cBc DFA|edc B2d|
gfg dBG|gdB cAA|DFA fed|cAF G2d:|
|:ded BGB|ded cAA|cBc DFA|edc B2c|
ded BGB|ded cAA|DFA fed|cAF GBc:|
|:gfg agf|gdc BAG|DFA AFD|edc B2d|
gfg agf|gdc BAG|DFA fed|cAF G2d:|

